X: 36
T:Gigg Time. BF13.035
M:2/2
L:1/8
Q:200
S:J.Lishman()MS,c1825,Lakes,Browne Coll.
R:Reel
O:England
A:Lakes
Z:vmp.Cherri Graebe.
K:A major
e|cBAc ecfd|cBAc BEEd|cBAc ecfd|ceBe A2A2|!
|E2Ec dBcA|dfce BAG"NB"F|E2Ec dBcA| dfce Be A2|!
E2Ec dBcA|dfce BAGF|AcBd cedf ea g/2f/2ga2a2:|]
W:E in ms. CGP. ||
